X: 364
T: the Jolly Beggarman
R: waltz, air
%S: s:4 b:32(8+8+8+8)
B: O'Neill's 1850 #364
O: F.O'Neill.
Z: Chris Falt, cfalt@trytel.com
Q: "Gaily."
M: 3/4
L: 1/4
K: D
  (f/e/) |  d>cA | (TAGA) | c>AG | A2(f/e/) | d>cA  |  ABc  | d>ed | (dfe) ||
         |  d>cA | (TAGA) | c>AG | ATfe     | d>cA  |  ABc  |  d3- | d2    |]
[| f/g/  | (a2b) |  (g2a) | fed  | cde      | (a2b) | (g2a) | fed  | efg   ||
         | (a2b) |  (g2a) | fed  | cde      |  fed  |  cAc  |  d3- | d2    |]
